app/images/icons/icons.svg

<svg xmlns="http://www.w3.org/2000/svg"><defs><font horiz-adv-x="512"><font-face font-family="icons" font-weight="500" units-per-em="512" panose-1="2 0 6 3 0 0 0 0 0 0" ascent="448" descent="-64" bbox="-0.0208333 -64 512 448" underline-thickness="25" underline-position="-52" unicode-range="U+E001-E018"/><glyph glyph-name=".notdef" horiz-adv-x="187" d="M17 0v341h136v-341h-136zm17 17h102v307h-102v-307z"/><glyph glyph-name=".null" horiz-adv-x="0"/><glyph glyph-name="nonmarkingreturn" horiz-adv-x="170"/><glyph glyph-name="uniE001" unicode="" d="M0-64v512h512v-512h-512z"/><glyph glyph-name="uniE002" unicode="" d="M512 448v-154l-256-204-256 204v154l256-205z"/><glyph glyph-name="uniE003" unicode="" horiz-adv-x="306" d="M0 448h104l202-257-202-255h-104l201 255z"/><glyph glyph-name="uniE004" unicode="" horiz-adv-x="307" d="M159 192l148-256h-159l-148 256 148 256h159z"/><glyph glyph-name="uniE005" unicode="" horiz-adv-x="307" d="M0 448h159l148-256-148-256h-159l148 256z"/><glyph glyph-name="uniE006" unicode="" d="M256 294l-256-204v153l256 205 256-205v-153z"/><glyph glyph-name="uniE007" unicode="" d="M452 448l60-60-452-452-60 60zm-392 0l452-452-60-60-452 452z"/><glyph glyph-name="uniE008" unicode="" d="M512 160l-77-32q-4-12-7-18l32-76-45-45-77 31q-12-6-18-8l-32-76h-64l-32 76q-15 5-19 7l-75-31-45 45 30 76q-6 12-8 19l-75 32v64l75 32q2 7 8 19l-31 75 45 45 76-30q4 2 19 7l32 76h64l32-76q12-4 18-7l76 31 45-45-31-77q6-12 8-18l76-32v-64zm-256-80q46 0 78.5 32.5t32.5 79.5-32.5 79.5-78.5 32.5-79-33-33-79 33-79 79-33z"/><glyph glyph-name="uniE009" unicode="" d="M0 192l256 256 256-256-256-256z"/><glyph glyph-name="uniE00A" unicode="" horiz-adv-x="116" d="M116 111h-116v337h116v-337zm0-175h-116v93h116v-93z"/><glyph glyph-name="uniE00B" unicode="" d="M219 6h-113l-106 186 106 186h113l-105-186zm74 372h113l106-186-106-186h-113l105 186z"/><glyph glyph-name="uniE00C" unicode="" horiz-adv-x="392" d="M205 80h-57l-24-144h-70l24 144h-78v65h89l15 92h-78v65h89l24 146h69l-23-146h56l24 146h70l-24-146h81v-65h-91l-16-92h81v-65h-91l-24-144h-70zm-46 65h56l16 92h-57z"/><glyph glyph-name="uniE00D" unicode="" d="M0-23l116 291 233-291h-349zm236 178l160 217 116-395h-163zm-96 194q0 58 58 58t58-58-58-58-58 58z"/><glyph glyph-name="uniE00E" unicode="" horiz-adv-x="442" d="M0 448h442v-512h-442v512zm419-489v466h-396v-466h396zm-361 349v47h326v-47h-326zm0-104v46h326v-46h-326zm0-105v46h279v-46h-279z"/><glyph glyph-name="uniE00F" unicode="" d="M0 372v76h512v-76h-512zm0-152v76h512v-76h-512zm0-151v76h512v-76h-512z"/><glyph glyph-name="uniE010" unicode="" d="M0 227h512v-70h-512v70z"/><glyph glyph-name="uniE011" unicode="" d="M36 156l-36 36 123 122 36-36zm87-86l-123 122 36 36 123-122zm353 158l36-36-123-122-36 36zm-87 86l123-122-36-36-123 122zm-356-110v-24h411v24h-411z"/><glyph glyph-name="uniE012" unicode="" d="M221 37q0 35 35 35t35-35-35-35-35 35zm181 221q-67 76-169 76-89 0-156-62-66-62-71-152h-6v6q0 106 75 181t181 75q110 0 185-80zm-165-216l26-23 221 246-26 24zm207 147l43 47q25-51 25-110v-2q0-2-.5-5t-.5-7l-53 20q-3 27-14 57z"/><glyph glyph-name="uniE013" unicode="" d="M221 448h70v-512h-70v512zm-221-221h512v-70h-512v70z"/><glyph glyph-name="uniE014" unicode="" horiz-adv-x="344" d="M100 76q0 48 17 73 18 26 61 56 24 16 37 36t13 49q0 28-16 46-15 17-44 17-22 0-38-14t-16-42h-113l-1 2q-1 71 46 108 53 41 122 41 76 0 129-46 47-41 47-112 0-42-26-79-24-34-65-56-22-14-30-33-7-15-7-46h-116zm109-140h-104v81h104v-81z"/><glyph glyph-name="uniE015" unicode="" horiz-adv-x="372" d="M372 448l-200-512h-172l201 512h171z"/><glyph glyph-name="uniE016" unicode="" d="M182 162l-182 52 36 108 177-75-13 201h119l-15-205 172 73 36-109-183-52 121-152-95-67-103 168-101-162-96 64z"/><glyph glyph-name="uniE017" unicode="" d="M0 92l50 104 301-145-50-104zm512 294l-211-439-105 50 212 439z"/><glyph glyph-name="uniE018" unicode="" d="M314 192q0-24-17-41t-41-17-41 17-17 41 17 41 41 17 41-17 17-41zm-58 128q-53 0-90.5-37.5t-37.5-90.5 37.5-90.5 90.5-37.5 90.5 37.5 37.5 90.5-37.5 90.5-90.5 37.5zm0 23q63 0 107-44t44-107-44-107-107-44-107 44-44 107 44 107 107 44zm0 93q-101 0-172.5-71.5t-71.5-172.5 71.5-172.5 172.5-71.5 172.5 71.5 71.5 172.5-71.5 172.5-172.5 71.5zm0 12q106 0 181-75t75-181-75-181-181-75-181 75-75 181 75 181 181 75z"/></font></defs></svg>

<svg xmlns="http://www.w3.org/2000/svg"><defs><font horiz-adv-x="512"><font-face font-family="icons" font-weight="500" units-per-em="512" panose-1="2 0 6 3 0 0 0 0 0 0" ascent="448" descent="-64" bbox="-0.0208333 -64 512 448" underline-thickness="25" underline-position="-52" unicode-range="U+E001-E018"/><glyph glyph-name=".notdef" horiz-adv-x="187" d="M17 0v341h136V0H17zm17 17h102v307H34V17z"/><glyph glyph-name=".null" horiz-adv-x="0"/><glyph glyph-name="nonmarkingreturn" horiz-adv-x="170"/><glyph glyph-name="uniE001" unicode="" d="M0-64v512h512V-64H0z"/><glyph glyph-name="uniE002" unicode="" d="M512 448V294L256 90 0 294v154l256-205z"/><glyph glyph-name="uniE003" unicode="" horiz-adv-x="306" d="M0 448h104l202-257L104-64H0l201 255z"/><glyph glyph-name="uniE004" unicode="" horiz-adv-x="307" d="M159 192L307-64H148L0 192l148 256h159z"/><glyph glyph-name="uniE005" unicode="" horiz-adv-x="307" d="M0 448h159l148-256L159-64H0l148 256z"/><glyph glyph-name="uniE006" unicode="" d="M256 294L0 90v153l256 205 256-205V90z"/><glyph glyph-name="uniE007" unicode="" d="M452 448l60-60L60-64 0-4zm-392 0L512-4l-60-60L0 388z"/><glyph glyph-name="uniE008" unicode="" d="M512 160l-77-32q-4-12-7-18l32-76-45-45-77 31q-12-6-18-8l-32-76h-64l-32 76q-15 5-19 7L98-12 53 33l30 76q-6 12-8 19L0 160v64l75 32q2 7 8 19l-31 75 45 45 76-30q4 2 19 7l32 76h64l32-76q12-4 18-7l76 31 45-45-31-77q6-12 8-18l76-32v-64zM256 80q46 0 78.5 32.5T367 192t-32.5 79.5T256 304t-79-33-33-79 33-79 79-33z"/><glyph glyph-name="uniE009" unicode="" d="M0 192l256 256 256-256L256-64z"/><glyph glyph-name="uniE00A" unicode="" horiz-adv-x="116" d="M116 111H0v337h116V111zm0-175H0v93h116v-93z"/><glyph glyph-name="uniE00B" unicode="" d="M219 6H106L0 192l106 186h113L114 192zm74 372h113l106-186L406 6H293l105 186z"/><glyph glyph-name="uniE00C" unicode="" horiz-adv-x="392" d="M205 80h-57L124-64H54L78 80H0v65h89l15 92H26v65h89l24 146h69l-23-146h56l24 146h70l-24-146h81v-65h-91l-16-92h81V80h-91L251-64h-70zm-46 65h56l16 92h-57z"/><glyph glyph-name="uniE00D" unicode="" d="M0-23l116 291L349-23H0zm236 178l160 217L512-23H349zm-96 194q0 58 58 58t58-58-58-58-58 58z"/><glyph glyph-name="uniE00E" unicode="" horiz-adv-x="442" d="M0 448h442V-64H0v512zM419-41v466H23V-41h396zM58 308v47h326v-47H58zm0-104v46h326v-46H58zm0-105v46h279V99H58z"/><glyph glyph-name="uniE00F" unicode="" d="M0 372v76h512v-76H0zm0-152v76h512v-76H0zM0 69v76h512V69H0z"/><glyph glyph-name="uniE010" unicode="" d="M0 227h512v-70H0v70z"/><glyph glyph-name="uniE011" unicode="" d="M36 156L0 192l123 122 36-36zm87-86L0 192l36 36 123-122zm353 158l36-36L389 70l-36 36zm-87 86l123-122-36-36-123 122zM33 204v-24h411v24H33z"/><glyph glyph-name="uniE012" unicode="" d="M221 37q0 35 35 35t35-35-35-35-35 35zm181 221q-67 76-169 76-89 0-156-62-66-62-71-152H0v6q0 106 75 181t181 75q110 0 185-80zM237 42l26-23 221 246-26 24zm207 147l43 47q25-51 25-110v-2q0-2-.5-5t-.5-7l-53 20q-3 27-14 57z"/><glyph glyph-name="uniE013" unicode="" d="M221 448h70V-64h-70v512zM0 227h512v-70H0v70z"/><glyph glyph-name="uniE014" unicode="" horiz-adv-x="344" d="M100 76q0 48 17 73 18 26 61 56 24 16 37 36t13 49q0 28-16 46-15 17-44 17-22 0-38-14t-16-42H1l-1 2q-1 71 46 108 53 41 122 41 76 0 129-46 47-41 47-112 0-42-26-79-24-34-65-56-22-14-30-33-7-15-7-46H100zM209-64H105v81h104v-81z"/><glyph glyph-name="uniE015" unicode="" horiz-adv-x="372" d="M372 448L172-64H0l201 512h171z"/><glyph glyph-name="uniE016" unicode="" d="M182 162L0 214l36 108 177-75-13 201h119l-15-205 172 73 36-109-183-52L450 3l-95-67-103 168L151-58 55 6z"/><glyph glyph-name="uniE017" unicode="" d="M0 92l50 104L351 51 301-53zm512 294L301-53 196-3l212 439z"/><glyph glyph-name="uniE018" unicode="" d="M314 192q0-24-17-41t-41-17-41 17-17 41 17 41 41 17 41-17 17-41zm-58 128q-53 0-90.5-37.5T128 192t37.5-90.5T256 64t90.5 37.5T384 192t-37.5 90.5T256 320zm0 23q63 0 107-44t44-107-44-107-107-44-107 44-44 107 44 107 107 44zm0 93q-101 0-172.5-71.5T12 192 83.5 19.5 256-52t172.5 71.5T500 192t-71.5 172.5T256 436zm0 12q106 0 181-75t75-181-75-181-181-75T75 11 0 192t75 181 181 75z"/></font></defs></svg>
